TF1/sum.svg

<svg xmlns="http://www.w3.org/2000/svg" viewBox="0 0 1200 800" preserveAspectRatio="none" width="1200" height="800">
 <path d="M0,0H1200V800H0Z" style="fill: white;"></path>
 <g>
  <g transform="translate(120,80)">
   <path d="M0,0H960V640H0Z" style="fill: white; stroke: black; stroke-width: 1;"></path>
   <svg x="0" y="0" overflow="hidden" width="960" height="640" viewBox="0 0 960 640">
    <g>
     <path d="M0,27.41C1.14,28.14,7.33,32.09,9.6,33.54S16.93,38.21,19.2,39.66S26.53,44.34,28.8,45.79S36.13,50.47,38.4,51.92S45.73,56.59,48,58.04S55.33,62.72,57.6,64.17S64.93,68.84,67.2,70.29S74.53,74.97,76.8,76.42S84.13,81.09,86.4,82.55S93.73,87.22,96,88.67S103.33,93.35,105.6,94.8S112.93,99.47,115.2,100.92S122.53,105.6,124.8,107.05S132.13,111.72,134.4,113.18S141.73,117.85,144,119.3S151.33,123.97,153.6,125.43S160.92,130.1,163.2,131.55S170.52,136.22,172.8,137.67S180.12,142.33,182.4,143.78S189.71,148.42,192,149.87S199.3,154.48,201.6,155.92S208.88,160.47,211.2,161.9S218.44,166.33,220.8,167.74S227.97,171.97,230.4,173.34S237.45,177.23,240,178.52S246.88,181.9,249.6,183.04S256.25,185.7,259.2,186.55S265.6,188.55,268.8,188.62S275.2,188.79,278.4,188.72S285.25,187.43,288,186.32S295.51,182.47,297.6,180.95S305.69,173.94,307.2,172.34S315.68,162.12,316.8,160.59S325.48,147.69,326.4,146.24S335.14,131.77,336,130.35S344.66,115.95,345.6,114.5S353.95,102.13,355.2,100.57S362.75,92.09,364.8,90.55S371.23,86.5,374.4,86.19S381.73,87.22,384,88.67S392.49,96.91,393.6,98.44S402.57,113.78,403.2,115.05S412.37,136.23,412.8,137.32S422.04,162.5,422.4,163.5S431.67,190.63,432,191.61S441.25,218.75,441.6,219.75S450.8,245.29,451.2,246.36S460.3,269.2,460.8,270.36S469.76,289.93,470.4,291.21S479.16,307.43,480,308.84S488.52,321.98,489.6,323.49S497.84,334.06,499.2,335.64S507.18,344.23,508.8,345.83S516.56,352.98,518.4,354.56S525.99,360.75,528,362.29S535.48,367.85,537.6,369.36S545.01,374.53,547.2,376.02S554.57,380.96,556.8,382.43S564.15,387.24,566.4,388.7S573.74,393.45,576,394.9S583.33,399.61,585.6,401.06S592.93,405.75,595.2,407.21S602.53,411.89,604.8,413.34S612.13,418.02,614.4,419.47S621.73,424.14,624,425.59S631.33,430.27,633.6,431.72S640.93,436.4,643.2,437.85S650.53,442.52,652.8,443.97S660.13,448.65,662.4,450.1S669.73,454.77,672,456.22S679.33,460.9,681.6,462.35S688.93,467.02,691.2,468.48S698.53,473.15,700.8,474.6S708.13,479.28,710.4,480.73S717.73,485.4,720,486.85S727.33,491.53,729.6,492.98S736.93,497.65,739.2,499.11S746.53,503.78,748.8,505.23S756.13,509.91,758.4,511.36S765.73,516.03,768,517.48S775.33,522.16,777.6,523.61S784.93,528.28,787.2,529.73S794.53,534.41,796.8,535.86S804.13,540.54,806.4,541.99S813.73,546.66,816,548.11S823.33,552.79,825.6,554.24S832.93,558.91,835.2,560.36S842.53,565.04,844.8,566.49S852.13,571.16,854.4,572.62S861.73,577.29,864,578.74S871.33,583.42,873.6,584.87S880.93,589.54,883.2,590.99S890.53,595.67,892.8,597.12S900.13,601.79,902.4,603.24S909.73,607.92,912,609.37S919.33,614.05,921.6,615.5S928.93,620.17,931.2,621.62S938.53,626.3,940.8,627.75S948.13,632.42,950.4,633.87S958.86,639.27,960,640" style="fill: none; stroke: red; stroke-width: 2;"></path>
    </g>
   </svg>
   <g>
    <g transform="translate(0,640)">
     <path d="M0,0h960M0,-24v24m19,-12v12m19,-12v12m20,-12v12m19,-12v12m19,-24v24m19,-12v12m19,-12v12m20,-12v12m19,-12v12m19,-24v24m19,-12v12m19,-12v12m20,-12v12m19,-12v12m19,-24v24m19,-12v12m19,-12v12m20,-12v12m19,-12v12m19,-24v24m19,-12v12m19,-12v12m20,-12v12m19,-12v12m19,-24v24m19,-12v12m19,-12v12m20,-12v12m19,-12v12m19,-24v24m19,-12v12m19,-12v12m20,-12v12m19,-12v12m19,-24v24m19,-12v12m19,-12v12m20,-12v12m19,-12v12m19,-24v24m19,-12v12m19,-12v12m20,-12v12m19,-12v12m19,-24v24m19,-12v12m19,-12v12m20,-12v12m19,-12v12m19,-24v24" style="stroke: black; stroke-width: 1;"></path>
     <g font-family="Arial" font-size="28" space="preserve" fill="black" text-anchor="middle">
      <text dy=".8em" transform="translate(0,6)">
       0
      </text>
      <text dy=".8em" transform="translate(96,6)">
       1
      </text>
      <text dy=".8em" transform="translate(192,6)">
       2
      </text>
      <text dy=".8em" transform="translate(288,6)">
       3
      </text>
      <text dy=".8em" transform="translate(384,6)">
       4
      </text>
      <text dy=".8em" transform="translate(480,6)">
       5
      </text>
      <text dy=".8em" transform="translate(576,6)">
       6
      </text>
      <text dy=".8em" transform="translate(672,6)">
       7
      </text>
      <text dy=".8em" transform="translate(768,6)">
       8
      </text>
      <text dy=".8em" transform="translate(864,6)">
       9
      </text>
      <text dy=".8em" transform="translate(960,6)">
       10
      </text>
     </g>
    </g>
    <g>
     <path d="M0,0v640M36,640h-36m18,-31h-18m18,-30h-18m18,-31h-18m36,-31h-36m18,-30h-18m18,-31h-18m18,-30h-18m36,-31h-36m18,-31h-18m18,-30h-18m18,-31h-18m36,-31h-36m18,-30h-18m18,-31h-18m18,-30h-18m36,-31h-36m18,-31h-18m18,-30h-18m18,-31h-18m36,-31h-36" style="stroke: black; stroke-width: 1;"></path>
     <g font-family="Arial" font-size="28" space="preserve" fill="black" text-anchor="end">
      <text dy=".4em" transform="translate(-4,640)">
       0
      </text>
      <text dy=".4em" transform="translate(-4,517)">
       2
      </text>
      <text dy=".4em" transform="translate(-4,395)">
       4
      </text>
      <text dy=".4em" transform="translate(-4,272)">
       6
      </text>
      <text dy=".4em" transform="translate(-4,150)">
       8
      </text>
      <text dy=".4em" transform="translate(-4,27)">
       10
      </text>
     </g>
    </g>
   </g>
  </g>
  <g transform="translate(540,4)" font-family="Arial" font-size="36" space="preserve">
   <text fill="black" text-anchor="middle" dy=".4em" transform="translate(60,22)">
    f1+f2
   </text>
  </g>
 </g>
</svg>

<svg xmlns="http://www.w3.org/2000/svg" viewBox="0 0 1200 800" preserveAspectRatio="none" width="1200" height="800">
 <path d="M0,0H1200V800H0Z" style="fill: white;"></path>
 <g>
  <g transform="translate(120,80)">
   <path d="M0,0H960V640H0Z" style="fill: white; stroke: black; stroke-width: 1;"></path>
   <svg x="0" y="0" overflow="hidden" width="960" height="640" viewBox="0 0 960 640">
    <g>
     <path d="M0,27.41C1.14,28.14,7.33,32.09,9.6,33.54S16.93,38.21,19.2,39.66S26.53,44.34,28.8,45.79S36.13,50.47,38.4,51.92S45.73,56.59,48,58.04S55.33,62.72,57.6,64.17S64.93,68.84,67.2,70.29S74.53,74.97,76.8,76.42S84.13,81.09,86.4,82.55S93.73,87.22,96,88.67S103.33,93.35,105.6,94.8S112.93,99.47,115.2,100.92S122.53,105.6,124.8,107.05S132.13,111.72,134.4,113.18S141.73,117.85,144,119.3S151.33,123.97,153.6,125.43S160.92,130.1,163.2,131.55S170.52,136.22,172.8,137.67S180.12,142.33,182.4,143.78S189.71,148.42,192,149.87S199.3,154.48,201.6,155.92S208.88,160.47,211.2,161.9S218.44,166.33,220.8,167.74S227.97,171.97,230.4,173.34S237.45,177.23,240,178.52S246.88,181.9,249.6,183.04S256.25,185.7,259.2,186.55S265.6,188.55,268.8,188.62S275.2,188.79,278.4,188.72S285.25,187.43,288,186.32S295.51,182.47,297.6,180.95S305.69,173.94,307.2,172.34S315.68,162.12,316.8,160.59S325.48,147.69,326.4,146.24S335.14,131.77,336,130.35S344.66,115.95,345.6,114.5S353.95,102.13,355.2,100.57S362.75,92.09,364.8,90.55S371.23,86.5,374.4,86.19S381.73,87.22,384,88.67S392.49,96.91,393.6,98.44S402.57,113.78,403.2,115.05S412.37,136.23,412.8,137.32S422.04,162.5,422.4,163.5S431.67,190.63,432,191.61S441.25,218.75,441.6,219.75S450.8,245.29,451.2,246.36S460.3,269.2,460.8,270.36S469.76,289.93,470.4,291.21S479.16,307.43,480,308.84S488.52,321.98,489.6,323.49S497.84,334.06,499.2,335.64S507.18,344.23,508.8,345.83S516.56,352.98,518.4,354.56S525.99,360.75,528,362.29S535.48,367.85,537.6,369.36S545.01,374.53,547.2,376.02S554.57,380.96,556.8,382.43S564.15,387.24,566.4,388.7S573.74,393.45,576,394.9S583.33,399.61,585.6,401.06S592.93,405.75,595.2,407.21S602.53,411.89,604.8,413.34S612.13,418.02,614.4,419.47S621.73,424.14,624,425.59S631.33,430.27,633.6,431.72S640.93,436.4,643.2,437.85S650.53,442.52,652.8,443.97S660.13,448.65,662.4,450.1S669.73,454.77,672,456.22S679.33,460.9,681.6,462.35S688.93,467.02,691.2,468.48S698.53,473.15,700.8,474.6S708.13,479.28,710.4,480.73S717.73,485.4,720,486.85S727.33,491.53,729.6,492.98S736.93,497.65,739.2,499.11S746.53,503.78,748.8,505.23S756.13,509.91,758.4,511.36S765.73,516.03,768,517.48S775.33,522.16,777.6,523.61S784.93,528.28,787.2,529.73S794.53,534.41,796.8,535.86S804.13,540.54,806.4,541.99S813.73,546.66,816,548.11S823.33,552.79,825.6,554.24S832.93,558.91,835.2,560.36S842.53,565.04,844.8,566.49S852.13,571.16,854.4,572.62S861.73,577.29,864,578.74S871.33,583.42,873.6,584.87S880.93,589.54,883.2,590.99S890.53,595.67,892.8,597.12S900.13,601.79,902.4,603.24S909.73,607.92,912,609.37S919.33,614.05,921.6,615.5S928.93,620.17,931.2,621.62S938.53,626.3,940.8,627.75S948.13,632.42,950.4,633.87S958.86,639.27,960,640" style="fill: none; stroke: red; stroke-width: 2;"></path>
    </g>
   </svg>
   <g>
    <g transform="translate(0,640)">
     <path d="M0,0h960M0,-24V0M19,-12V0M38,-12V0M58,-12V0M77,-12V0M96,-24V0M115,-12V0M134,-12V0M154,-12V0M173,-12V0M192,-24V0M211,-12V0M230,-12V0M250,-12V0M269,-12V0M288,-24V0M307,-12V0M326,-12V0M346,-12V0M365,-12V0M384,-24V0M403,-12V0M422,-12V0M442,-12V0M461,-12V0M480,-24V0M499,-12V0M518,-12V0M538,-12V0M557,-12V0M576,-24V0M595,-12V0M614,-12V0M634,-12V0M653,-12V0M672,-24V0M691,-12V0M710,-12V0M730,-12V0M749,-12V0M768,-24V0M787,-12V0M806,-12V0M826,-12V0M845,-12V0M864,-24V0M883,-12V0M902,-12V0M922,-12V0M941,-12V0M960,-24V0" style="stroke: black; stroke-width: 1;"></path>
     <g font-family="Arial" font-size="28" space="preserve" fill="black" text-anchor="middle">
      <text dy=".8em" transform="translate(0,6)">
       0
      </text>
      <text dy=".8em" transform="translate(96,6)">
       1
      </text>
      <text dy=".8em" transform="translate(192,6)">
       2
      </text>
      <text dy=".8em" transform="translate(288,6)">
       3
      </text>
      <text dy=".8em" transform="translate(384,6)">
       4
      </text>
      <text dy=".8em" transform="translate(480,6)">
       5
      </text>
      <text dy=".8em" transform="translate(576,6)">
       6
      </text>
      <text dy=".8em" transform="translate(672,6)">
       7
      </text>
      <text dy=".8em" transform="translate(768,6)">
       8
      </text>
      <text dy=".8em" transform="translate(864,6)">
       9
      </text>
      <text dy=".8em" transform="translate(960,6)">
       10
      </text>
     </g>
    </g>
    <g>
     <path d="M0,0v640M36,640H0M18,609H0M18,579H0M18,548H0M36,517H0M18,487H0M18,456H0M18,426H0M36,395H0M18,364H0M18,334H0M18,303H0M36,272H0M18,242H0M18,211H0M18,181H0M36,150H0M18,119H0M18,89H0M18,58H0M36,27H0" style="stroke: black; stroke-width: 1;"></path>
     <g font-family="Arial" font-size="28" space="preserve" fill="black" text-anchor="end">
      <text dy=".4em" transform="translate(-4,640)">
       0
      </text>
      <text dy=".4em" transform="translate(-4,517)">
       2
      </text>
      <text dy=".4em" transform="translate(-4,395)">
       4
      </text>
      <text dy=".4em" transform="translate(-4,272)">
       6
      </text>
      <text dy=".4em" transform="translate(-4,150)">
       8
      </text>
      <text dy=".4em" transform="translate(-4,27)">
       10
      </text>
     </g>
    </g>
   </g>
  </g>
  <g transform="translate(540,4)" font-family="Arial" font-size="36" space="preserve">
   <text fill="black" text-anchor="middle" dy=".4em" transform="translate(60,22)">
    f1+f2
   </text>
  </g>
 </g>
</svg>
